public/avatar/body/110.svg

<svg xmlns:xlink="http://www.w3.org/1999/xlink" height="82" width="84.85" xmlns="http://www.w3.org/2000/svg"><g transform="translate(37.4 42.25)"><use height="38" transform="translate(-11.95 -17.45)" width="32.05" xlink:href="#a"/><use height="38.95" transform="translate(-12.45 -17.95)" width="33.05" xlink:href="#b"/><use height="20.75" transform="translate(-13.2 .75)" width="34.3" xlink:href="#c"/></g><defs><path d="M27.35 7.4q2.15 4.15 3.55 8.75 1.45 4.7 1.15 9.5-.35 4.95-4.2 8.1-3.8 3.2-8.75 4.05l-2.6.2q-3.6 0-7.05-1.15-4.65-1.6-7.1-5.5Q-.2 27.4.05 23q.2-4.4 2-9.3Q3.85 8.75 7 5.05 10.1 1.3 14.7.1l1.8-.1q1.9.05 3.7.8 4.75 2.05 7.15 6.6" fill="#d69e5e" fill-rule="evenodd" transform="translate(-.05)" id="d"/><path d="M27.35 7.4Q24.95 2.85 20.2.8 17.55-.3 14.7.1 10.1 1.3 7 5.05q-3.15 3.7-4.95 8.65-1.8 4.9-2 9.3-.25 4.4 2.3 8.35 2.45 3.9 7.1 5.5 4.65 1.55 9.65.95 4.95-.85 8.75-4.05 3.85-3.15 4.2-8.1.3-4.8-1.15-9.5-1.4-4.6-3.55-8.75Z" fill="none" stroke="#333" stroke-linecap="round" stroke-linejoin="round" transform="translate(.45 .5)" id="e"/><use height="38" width="32.05" xlink:href="#d" id="a"/><use height="38.95" width="33.05" xlink:href="#e" id="b"/><g id="c"><path d="M1.8 1.45 1.65 1l-.05.1v-.05L1.25 2.8q-.35 2.1-.2 3.95.5 6.15 1.25 5.15.55 1.55 2.9 3.6l.05-.1q4.1 4 11.2 4.3v.05h.5v-.05h.25q8.45-1.1 12.05-4.4l-.05.2q2.2-1.9 2.85-3.4.6.75.95-3.9.75-3.95-.25-7.2l-.05.1-.1.3" fill="none" stroke="#000" stroke-linecap="round" stroke-linejoin="round" stroke-width="2"/><path d="m19.55 1.75.5 4.7q-.15 5.4-3.55 9.2-3.3 3.65-12.5 4.8-8.1 0-12.45-4.8-3.4-3.8-3.6-9.2l.5-4.7q1.1 3.95 3.15 4.85 2 .9 6.6 2.4 1.65.7 3.55 2.7Q3.4 13.4 4 13.4q.6 0 2.25-1.7 1.9-2 3.55-2.7l6.15-2.4q2.4-1.05 3.6-4.85" fill="#243f57" fill-rule="evenodd" transform="translate(13.2 -.75)"/><path d="M3.7 12.6q-9 0-11.7 3.65l-3.05-8.5 9.15.35Q3.6 11 4.5 11l2-1.6q1.75-1.6 3.2-1.65l6.4-.25q3.85.85-.25 8.75Q12.7 12.6 3.7 12.6" fill="#3e6b94" fill-rule="evenodd" transform="translate(13.2 -.75)"/><path d="M17.05 9.4q1.05.15 2.05-.6l1.5-1.65q1.1-1.2 2.35-1.75l3.85-.95q2.6-.5 3.5-1.3l1.65-1.6" fill="none" stroke="#95651e" stroke-linecap="round" stroke-linejoin="round" stroke-width="1.5"/><path d="M17.1 9.4q-1.05.15-2.05-.6-1.75-2.5-3.85-3.4-5.75-.85-7.35-2.25l-1.8-1.5" fill="none" stroke="#95651e" stroke-linecap="round" stroke-linejoin="round" stroke-width="1.5"/><path d="m19.6 11.65-.65.95-.1.25q-3.2-4.4-4.2-4.55-1.5-.2-4.25 1.25L8 12.1Q6.15 14 3.85 14v-2.95q1.05.2 2.05-.55l1.5-1.65q1.1-1.25 2.35-1.8l3.85-.9q2.6-.5 3.5-1.35 1.55-1.4 2.25-3l.35 1.75q.35 2.1.2 3.95l-.3 4.15" fill="#df0" fill-rule="evenodd" transform="translate(13.2 -.75)"/><path d="m8.9 8.05-.15-.15q1.6-1.2 5.5-1.8 1.9-.9 5-3.9.65.6.65 3.3 0 1.35-.5 1.55h-1.95l-4.35.1-4.2.9" fill="#f9ffd6" fill-rule="evenodd" transform="translate(13.2 -.75)"/><path d="M3.9 11.05 3.85 14q-2.3 0-4.1-1.9-1.6-2.1-2.4-2.55Q-5.5 8.15-6.6 8.3q-.7.1-2.95 2.75l-1.3 1.65-.6-1.15-.45-.8-.25-3.25q-.15-1.85.2-3.95l.35-1.75 2.25 3Q-7.75 6.25-2 7.05.1 8 1.85 10.5q1 .75 2.05.55" fill="#df0" fill-rule="evenodd" transform="translate(13.2 -.75)"/><path d="M-9.75 7.05h-1.9q-.6-.25-.5-1.55 0-2.7.65-3.3 3.1 3 5 3.9l2.8.75q1.8.4 2.7 1.05l-.15.15q-2.65-.85-4.2-.9l-4.4-.1" fill="#f9ffd6" fill-rule="evenodd" transform="translate(13.2 -.75)"/><path d="M3.2 11h1.3v4.15H3.2V11" fill="#243f57" fill-rule="evenodd" transform="translate(13.2 -.75)"/><path d="m9.4 14.15 1.25-2.25L15 12l-5.6 2.15" fill="#a2c9eb" fill-rule="evenodd" transform="translate(13.2 -.75)"/><path d="m15.9 9.15 2.7-.5.35 1.35q.3 1.6 0 2.55-.45 1.55-2.95 3.7.45-1.75.5-3.35l-.6-3.75m-23.8 0-.6 3.75q.05 1.6.5 3.35-2.5-2.15-2.95-3.7-.3-.95.05-2.55l.35-1.35 2.65.5" fill="#df0" fill-rule="evenodd" transform="translate(13.2 -.75)"/><path d="M3.25 11h.5v9.5h-.5V11" fill="#b6dafa" fill-rule="evenodd" transform="translate(13.2 -.75)"/><path d="M3.85 11.05q1.05.2 2.05-.55l1.5-1.65q1.1-1.25 2.35-1.8l3.85-.9q2.6-.5 3.5-1.35 1.55-1.4 2.25-3" fill="none" stroke="#fdfff2" stroke-linecap="round" stroke-linejoin="round" transform="translate(13.2 -.75)"/><path d="M3.9 11.05q-1.05.2-2.05-.55Q.1 8-2 7.05q-5.75-.8-7.35-2.25l-2.25-3" fill="none" stroke="#fdfff2" stroke-linecap="round" stroke-linejoin="round" transform="translate(13.2 -.75)"/></g></defs></svg>

<?xml version="1.0" encoding="UTF-8" standalone="no"?>
<svg xmlns:xlink="http://www.w3.org/1999/xlink" height="82.0px" width="84.85px" xmlns="http://www.w3.org/2000/svg">
  <g transform="matrix(1.0, 0.0, 0.0, 1.0, 37.4, 42.25)">
    <use height="38.0" transform="matrix(1.0, 0.0, 0.0, 1.0, -11.95, -17.45)" width="32.05" xlink:href="#sprite0"/>
    <use height="38.95" transform="matrix(1.0, 0.0, 0.0, 1.0, -12.45, -17.95)" width="33.05" xlink:href="#sprite1"/>
    <use height="20.75" transform="matrix(1.0, 0.0, 0.0, 1.0, -13.2, 0.75)" width="34.3" xlink:href="#shape2"/>
  </g>
  <defs>
    <g id="sprite0" transform="matrix(1.0, 0.0, 0.0, 1.0, -0.05, 0.0)">
      <use height="38.0" transform="matrix(1.0, 0.0, 0.0, 1.0, 0.05, 0.0)" width="32.05" xlink:href="#shape0"/>
    </g>
    <g id="shape0" transform="matrix(1.0, 0.0, 0.0, 1.0, -0.05, 0.0)">
      <path d="M27.35 7.4 Q29.5 11.55 30.9 16.15 32.35 20.85 32.05 25.65 31.7 30.6 27.85 33.75 24.05 36.95 19.1 37.8 L16.5 38.0 Q12.9 38.0 9.45 36.85 4.8 35.25 2.35 31.35 -0.2 27.4 0.05 23.0 0.25 18.6 2.05 13.7 3.85 8.75 7.0 5.05 10.1 1.3 14.7 0.1 L16.5 0.0 Q18.4 0.05 20.2 0.8 24.95 2.85 27.35 7.4" fill="#d69e5e" fill-rule="evenodd" stroke="none"/>
    </g>
    <g id="sprite1" transform="matrix(1.0, 0.0, 0.0, 1.0, 0.45, 0.5)">
      <use height="38.95" transform="matrix(1.0, 0.0, 0.0, 1.0, -0.45, -0.5)" width="33.05" xlink:href="#shape1"/>
    </g>
    <g id="shape1" transform="matrix(1.0, 0.0, 0.0, 1.0, 0.45, 0.5)">
      <path d="M27.35 7.4 Q24.95 2.85 20.2 0.8 17.55 -0.3 14.7 0.1 10.1 1.3 7.0 5.05 3.85 8.75 2.05 13.7 0.25 18.6 0.05 23.0 -0.2 27.4 2.35 31.35 4.8 35.25 9.45 36.85 14.1 38.4 19.1 37.8 24.05 36.95 27.85 33.75 31.7 30.6 32.05 25.65 32.35 20.85 30.9 16.15 29.5 11.55 27.35 7.4 Z" fill="none" stroke="#333333" stroke-linecap="round" stroke-linejoin="round" stroke-width="1.0"/>
    </g>
    <g id="shape2" transform="matrix(1.0, 0.0, 0.0, 1.0, 13.2, -0.75)">
      <path d="M-11.4 2.2 L-11.55 1.75 -11.6 1.85 -11.6 1.8 -11.95 3.55 Q-12.3 5.65 -12.15 7.5 -11.65 13.65 -10.9 12.65 -10.35 14.2 -8.0 16.25 L-7.95 16.15 Q-3.85 20.15 3.25 20.45 L3.25 20.5 3.75 20.5 3.75 20.45 4.0 20.45 Q12.45 19.35 16.05 16.05 L16.0 16.25 Q18.2 14.35 18.85 12.85 19.45 13.6 19.8 8.95 20.55 5.0 19.55 1.75 L19.5 1.85 19.4 2.15" fill="none" stroke="#000000" stroke-linecap="round" stroke-linejoin="round" stroke-width="2.0"/>
      <path d="M19.55 1.75 L20.05 6.45 Q19.9 11.85 16.5 15.65 13.2 19.3 4.0 20.45 -4.1 20.45 -8.45 15.65 -11.85 11.85 -12.05 6.45 L-11.55 1.75 Q-10.45 5.7 -8.4 6.6 -6.4 7.5 -1.8 9.0 -0.15 9.7 1.75 11.7 3.4 13.4 4.0 13.4 4.6 13.4 6.25 11.7 8.15 9.7 9.8 9.0 L15.95 6.6 Q18.35 5.55 19.55 1.75" fill="#243f57" fill-rule="evenodd" stroke="none"/>
      <path d="M3.7 12.6 Q-5.3 12.6 -8.0 16.25 L-11.05 7.75 -1.9 8.1 Q3.6 11.0 4.5 11.0 L6.5 9.4 Q8.25 7.8 9.7 7.75 L16.1 7.5 Q19.95 8.35 15.85 16.25 12.7 12.6 3.7 12.6" fill="#3e6b94" fill-rule="evenodd" stroke="none"/>
      <path d="M3.85 10.15 Q4.9 10.3 5.9 9.55 L7.4 7.9 Q8.5 6.7 9.75 6.15 L13.6 5.2 Q16.2 4.7 17.1 3.9 L18.75 2.3" fill="none" stroke="#95651e" stroke-linecap="round" stroke-linejoin="round" stroke-width="1.5"/>
      <path d="M3.9 10.15 Q2.85 10.3 1.85 9.55 0.1 7.05 -2.0 6.15 -7.75 5.3 -9.35 3.9 L-11.15 2.4" fill="none" stroke="#95651e" stroke-linecap="round" stroke-linejoin="round" stroke-width="1.5"/>
      <path d="M19.6 11.65 L18.95 12.6 18.85 12.85 Q15.65 8.45 14.65 8.3 13.15 8.1 10.4 9.55 L8.0 12.1 Q6.15 14.0 3.85 14.0 L3.85 11.05 Q4.9 11.25 5.9 10.5 L7.4 8.85 Q8.5 7.6 9.75 7.05 L13.6 6.15 Q16.2 5.65 17.1 4.8 18.65 3.4 19.35 1.8 L19.7 3.55 Q20.05 5.65 19.9 7.5 L19.6 11.65" fill="#ddff00" fill-rule="evenodd" stroke="none"/>
      <path d="M8.9 8.05 L8.75 7.9 Q10.35 6.7 14.25 6.1 16.15 5.2 19.25 2.2 19.9 2.8 19.9 5.5 19.9 6.85 19.4 7.05 L17.45 7.05 13.1 7.15 8.9 8.05" fill="#f9ffd6" fill-rule="evenodd" stroke="none"/>
      <path d="M3.9 11.05 L3.85 14.0 Q1.55 14.0 -0.25 12.1 -1.85 10.0 -2.65 9.55 -5.5 8.15 -6.6 8.3 -7.3 8.4 -9.55 11.05 L-10.85 12.7 -11.45 11.55 -11.9 10.75 -12.15 7.5 Q-12.3 5.65 -11.95 3.55 L-11.6 1.8 -9.35 4.8 Q-7.75 6.25 -2.0 7.05 0.1 8.0 1.85 10.5 2.85 11.25 3.9 11.05" fill="#ddff00" fill-rule="evenodd" stroke="none"/>
      <path d="M-9.75 7.05 L-11.65 7.05 Q-12.25 6.8 -12.15 5.5 -12.15 2.8 -11.5 2.2 -8.4 5.2 -6.5 6.1 L-3.7 6.85 Q-1.9 7.25 -1.0 7.9 L-1.15 8.05 Q-3.8 7.2 -5.35 7.15 L-9.75 7.05" fill="#f9ffd6" fill-rule="evenodd" stroke="none"/>
      <path d="M3.2 11.0 L4.5 11.0 4.5 15.15 3.2 15.15 3.2 11.0" fill="#243f57" fill-rule="evenodd" stroke="none"/>
      <path d="M9.4 14.15 L10.65 11.9 15.0 12.0 9.4 14.15" fill="#a2c9eb" fill-rule="evenodd" stroke="none"/>
      <path d="M15.9 9.15 L18.6 8.65 18.95 10.0 Q19.25 11.6 18.95 12.55 18.5 14.1 16.0 16.25 16.45 14.5 16.5 12.9 L15.9 9.15" fill="#ddff00" fill-rule="evenodd" stroke="none"/>
      <path d="M-7.9 9.15 L-8.5 12.9 Q-8.45 14.5 -8.0 16.25 -10.5 14.1 -10.95 12.55 -11.25 11.6 -10.9 10.0 L-10.55 8.65 -7.9 9.15" fill="#ddff00" fill-rule="evenodd" stroke="none"/>
      <path d="M3.25 11.0 L3.75 11.0 3.75 20.5 3.25 20.5 3.25 11.0" fill="#b6dafa" fill-rule="evenodd" stroke="none"/>
      <path d="M3.85 11.05 Q4.9 11.25 5.9 10.5 L7.4 8.85 Q8.5 7.6 9.75 7.05 L13.6 6.15 Q16.2 5.65 17.1 4.8 18.65 3.4 19.35 1.8" fill="none" stroke="#fdfff2" stroke-linecap="round" stroke-linejoin="round" stroke-width="1.0"/>
      <path d="M3.9 11.05 Q2.85 11.25 1.85 10.5 0.1 8.0 -2.0 7.05 -7.75 6.25 -9.35 4.8 L-11.6 1.8" fill="none" stroke="#fdfff2" stroke-linecap="round" stroke-linejoin="round" stroke-width="1.0"/>
    </g>
  </defs>
</svg>
